X:447
T:Lady Susan Gordon
R:Reel
C:William Marshall
B:The Athole Collection
M:C|
L:1/8
K:B_
BfdB fBdB|GBFD EC C2|BfdB fBdB|ga/b/ fe dB ~B2:|
D/E/F BF dFBF|E/F/G cG eGcG|D/E/F BF dFBF|FAce dB ~B2|
D/E/F BF dFBF|E/F/G cG eGcG|D/E/F BF dBfd|ga/b/ fe dB ~B2||

